src/images/close.svg

<?xml version="1.0" encoding="UTF-8" standalone="no"?><!DOCTYPE svg PUBLIC "-//W3C//DTD SVG 1.1//EN" "http://www.w3.org/Graphics/SVG/1.1/DTD/svg11.dtd"><svg width="100%" height="100%" viewBox="0 0 75 299" version="1.1" xmlns="http://www.w3.org/2000/svg" xmlns:xlink="http://www.w3.org/1999/xlink" xml:space="preserve" xmlns:serif="http://www.serif.com/" style="fill-rule:evenodd;clip-rule:evenodd;stroke-linejoin:round;stroke-miterlimit:1.41421;"><path id="Plus-Icon" serif:id="Plus Icon" d="M63.398,72.621l-26.133,-26.132l-26.131,26.132c-2.548,2.547 -6.677,2.547 -9.224,0c-2.547,-2.547 -2.547,-6.676 0,-9.223l26.132,-26.132l-26.132,-26.133c-2.547,-2.546 -2.547,-6.676 0,-9.223c2.547,-2.547 6.677,-2.547 9.223,0l26.133,26.132l26.131,-26.131c2.548,-2.548 6.677,-2.548 9.224,-0.001c2.547,2.547 2.547,6.676 -0.001,9.224l-26.131,26.131l26.132,26.133c2.547,2.546 2.546,6.676 0,9.223c-2.547,2.546 -6.677,2.547 -9.223,0Z" style="fill:#999;"/><path id="Plus-Icon1" serif:id="Plus Icon" d="M63.398,147.152l-26.133,-26.132l-26.131,26.132c-2.548,2.547 -6.677,2.547 -9.224,0c-2.547,-2.547 -2.547,-6.676 0,-9.223l26.132,-26.132l-26.132,-26.133c-2.547,-2.546 -2.547,-6.676 0,-9.223c2.547,-2.546 6.677,-2.547 9.223,0l26.133,26.132l26.131,-26.131c2.548,-2.548 6.677,-2.548 9.224,-0.001c2.547,2.547 2.547,6.676 -0.001,9.224l-26.131,26.131l26.132,26.133c2.547,2.547 2.546,6.676 0,9.223c-2.547,2.546 -6.677,2.547 -9.223,0Z"/><path id="Plus-Icon2" serif:id="Plus Icon" d="M63.398,221.683l-26.133,-26.132l-26.131,26.132c-2.548,2.547 -6.677,2.547 -9.224,0c-2.547,-2.547 -2.547,-6.676 0,-9.223l26.132,-26.132l-26.132,-26.133c-2.547,-2.546 -2.547,-6.676 0,-9.223c2.547,-2.546 6.677,-2.547 9.223,0l26.133,26.133l26.131,-26.132c2.548,-2.548 6.677,-2.547 9.224,-0.001c2.547,2.547 2.547,6.676 -0.001,9.225l-26.131,26.131l26.132,26.132c2.547,2.547 2.546,6.676 0,9.223c-2.547,2.547 -6.677,2.547 -9.223,0Z" style="fill:#fff;"/><path id="Plus-Icon3" serif:id="Plus Icon" d="M63.398,296.214l-26.133,-26.132l-26.131,26.132c-2.548,2.547 -6.677,2.547 -9.224,0c-2.547,-2.547 -2.547,-6.676 0,-9.223l26.132,-26.132l-26.132,-26.132c-2.547,-2.547 -2.547,-6.677 0,-9.224c2.547,-2.546 6.677,-2.546 9.223,0l26.133,26.133l26.131,-26.131c2.548,-2.549 6.677,-2.548 9.224,-0.001c2.547,2.546 2.547,6.675 -0.001,9.224l-26.131,26.131l26.132,26.132c2.547,2.547 2.546,6.676 0,9.223c-2.547,2.547 -6.677,2.547 -9.223,0Z" style="fill:#002147;"/></svg>

<?xml version="1.0" encoding="UTF-8" standalone="no"?>
<!DOCTYPE svg PUBLIC "-//W3C//DTD SVG 1.1//EN" "http://www.w3.org/Graphics/SVG/1.1/DTD/svg11.dtd">
<svg width="100%" height="100%" viewBox="0 0 75 450" version="1.1" xmlns="http://www.w3.org/2000/svg" xmlns:xlink="http://www.w3.org/1999/xlink" xml:space="preserve" xmlns:serif="http://www.serif.com/" style="fill-rule:evenodd;clip-rule:evenodd;stroke-linejoin:round;stroke-miterlimit:2;">
    <g id="Plus-Icon" serif:id="Plus Icon" transform="matrix(1,0,0,1,0.2345,0.2345)">
        <path d="M63.398,72.621L37.265,46.489L11.134,72.621L1.91,63.398L28.042,37.266L1.91,11.133L11.133,1.91L37.266,28.042L63.397,1.911L72.62,11.134L46.489,37.265L72.621,63.398L63.398,72.621Z" style="fill:rgb(153,153,153);"/>
    </g>
    <g id="Plus-Icon1" serif:id="Plus Icon" transform="matrix(1,0,0,1,0.2345,0.7035)">
        <path d="M63.398,147.152L37.265,121.02L11.134,147.152L1.91,137.929L28.042,111.797L1.91,85.664L11.133,76.441L37.266,102.573L63.397,76.442L72.62,85.665L46.489,111.796L72.621,137.929L63.398,147.152Z"/>
    </g>
    <g id="Plus-Icon2" serif:id="Plus Icon" transform="matrix(1,0,0,1,0.2345,1.1725)">
        <path d="M63.398,221.683L37.265,195.551L11.134,221.683L1.91,212.46L28.042,186.328L1.91,160.195L11.133,150.972L37.266,177.105L63.397,150.973L72.62,160.197L46.489,186.328L72.621,212.46L63.398,221.683Z" style="fill:white;"/>
    </g>
    <g id="Plus-Icon3" serif:id="Plus Icon" transform="matrix(1,0,0,1,0.2345,1.6415)">
        <path d="M63.398,296.214L37.265,270.082L11.134,296.214L1.91,286.991L28.042,260.859L1.91,234.727L11.133,225.503L37.266,251.636L63.397,225.505L72.62,234.728L46.489,260.859L72.621,286.991L63.398,296.214Z" style="fill:rgb(0,33,71);"/>
    </g>
    <g id="Plus-Icon4" serif:id="Plus Icon" transform="matrix(1,0,0,1,0.2345,76.6415)">
        <path d="M63.398,296.214L37.265,270.082L11.134,296.214L1.91,286.991L28.042,260.859L1.91,234.727L11.133,225.503L37.266,251.636L63.397,225.505L72.62,234.728L46.489,260.859L72.621,286.991L63.398,296.214Z" style="fill:rgb(85,85,85);"/>
    </g>
    <g id="Plus-Icon5" serif:id="Plus Icon" transform="matrix(1,0,0,1,0.2345,151.642)">
        <path d="M63.398,296.214L37.265,270.082L11.134,296.214L1.91,286.991L28.042,260.859L1.91,234.727L11.133,225.503L37.266,251.636L63.397,225.505L72.62,234.728L46.489,260.859L72.621,286.991L63.398,296.214Z" style="fill:rgb(0,94,255);"/>
    </g>
</svg>
